docs/.vuepress/public/images/filecoin-header-text.svg

<?xml version="1.0" encoding="UTF-8"?>
<!-- Generator: Adobe Illustrator 25.2.1, SVG Export Plug-In . SVG Version: 6.00 Build 0)  -->
<svg id="Layer_1" enable-background="new 0 0 775.7 235.3" version="1.1" viewBox="0 0 775.7 235.3" xml:space="preserve" xmlns="http://www.w3.org/2000/svg">
<style type="text/css">
	.st0{fill:#0090FF;}
</style>
<path class="st0" d="M531.3,43h4v155.4h-4V43z"/>
<g transform="translate(100 100)">
	<path d="m-66.5 59v-39.1h43.6v-12.8h-43.6v-23.7h46.3v-12.9h-61.8v88.5h15.5zm70.8-73.8v-14.6h-14.5v14.6h14.5zm0 73.8v-65.7h-14.5v65.7h14.5zm30.9 0v-88.5h-14.5v88.5h14.5zm45.8 1.6c16.8 0 26.9-10.7 29.8-21.2h-14.3c-2.6 6.2-8.4 9.2-16.1 9.2-8.3 0-16.8-6-17.8-18.2h48.9c1.3-22-11.4-38.4-31.5-38.4-18.6 0-32.2 14-32.2 33.8 0 18.8 12.1 34.8 33.2 34.8zm15.8-40.9h-34.2c1.3-12.3 10.6-16.5 17.4-16.5 8.6 0 16.4 6.3 16.8 16.5zm56.1 40.9c14 0 27.6-8.7 30.5-24h-14.2c-2 8.8-8.9 12-16.1 12-8.5 0-16.8-6.7-16.8-22.3 0-15.5 8.1-22.2 17.2-22.2 7.9 0 13.9 4.9 15.3 11.8h14.2c-2.6-14.5-15-23.9-29.4-23.9-19.7 0-32.2 14.9-32.2 34.4s12.4 34.2 31.5 34.2zm71.3 0c16 0 32.3-10.5 32.3-34.3 0-23.7-16.4-34.4-32.3-34.4s-32.3 10.7-32.3 34.4c0 23.8 16.4 34.3 32.3 34.3zm0-11.9c-9.3 0-17.3-7.2-17.3-22.5 0-15.1 8.1-22.6 17.3-22.6s17.3 7.4 17.3 22.6c0.1 15.3-8 22.5-17.3 22.5zm59.9-63.5v-14.6h-14.5v14.6h14.5zm0 73.8v-65.7h-14.5v65.7h14.5zm30.8 0v-34.9c0-11.8 4-20.4 15.3-20.4 11.2 0 12.4 8.8 12.4 17.6v37.7h14.5v-41.2c0-15.6-6.5-25.9-22.3-25.9-9.3 0-16.1 3.8-19.9 10.6v-9.2h-14.5v65.7h14.5z"/>
</g>

	<path d="m619.9 93.6c16.8 0 29.1 6.4 29.1 26.6 0 20.3-12.2 26.7-29.1 26.7h-14.6v-53.3h14.6zm-0.2 6.3h-6.8v40.7h6.8c11 0 21.6-2.2 21.6-20.4 0-18.1-10.7-20.3-21.6-20.3z"/>
	<path d="m693.4 127.3c0 14.3-9.8 20.6-19 20.6s-19-6.3-19-20.6 9.8-20.6 19-20.6 19 6.2 19 20.6zm-19 14.7c6.1 0 11.8-4.6 11.8-14.7 0-10.6-5.7-14.7-11.8-14.7s-11.8 3.9-11.8 14.7c-0.1 10.6 5.7 14.7 11.8 14.7z"/>
	<path d="m734.9 120.6h-6.8c-1-4.7-5-8-10.2-8-5.9 0-11.4 4.6-11.4 14.6s5.5 14.9 11.4 14.9c5.7 0 9.6-3.8 10.5-7.9h6.9c-1.4 7.4-8.4 13.8-17.7 13.8-11.4 0-18.5-8.6-18.5-20.7 0-11.8 7.4-20.5 19.1-20.5 9.8-0.1 15.8 7 16.7 13.8z"/>
	<path d="m765.9 118.9c-1.1-4.7-4.6-6.5-9.3-6.5-3.9 0-8.3 1.5-8.3 5 0 3.2 2.2 4.6 6 5.4l5.6 1.1c7.2 1.3 13.5 4.2 13.5 11.8 0 7.9-7.1 12.3-16.1 12.3-10.3 0-16.2-6.8-17-13.8h7.1c1.1 5.1 4.2 8.1 10.1 8.1 5.1 0 9.2-2.1 9.2-5.9 0-4.1-3.8-5.6-8-6.5l-5.9-1.2c-5.4-1.2-11.3-3.5-11.3-11 0-7 7.1-11 15.8-11s14.3 4.7 15.6 12.3h-7z"/>

</svg>

<?xml version="1.0" encoding="utf-8"?>
<!-- Generator: Adobe Illustrator 25.2.1, SVG Export Plug-In . SVG Version: 6.00 Build 0)  -->
<svg version="1.1" id="Layer_1" xmlns="http://www.w3.org/2000/svg" xmlns:xlink="http://www.w3.org/1999/xlink" x="0px" y="0px"
	 viewBox="0 0 775.7 235.3" style="enable-background:new 0 0 775.7 235.3;" xml:space="preserve">
<style type="text/css">
	.st0{fill:#0090FF;}
</style>
<path class="st0" d="M531.3,43h4v155.4h-4V43z"/>
<g transform="translate(100 100)">
	<path d="M-66.5,59V19.9h43.6V7.1h-43.6v-23.7h46.3v-12.9H-82V59L-66.5,59z M4.3-14.8v-14.6h-14.5v14.6H4.3z M4.3,59V-6.7h-14.5V59
		H4.3z M35.2,59v-88.5H20.7V59H35.2z M81,60.6c16.8,0,26.9-10.7,29.8-21.2H96.5c-2.6,6.2-8.4,9.2-16.1,9.2c-8.3,0-16.8-6-17.8-18.2
		h48.9c1.3-22-11.4-38.4-31.5-38.4c-18.6,0-32.2,14-32.2,33.8C47.8,44.6,59.9,60.6,81,60.6L81,60.6z M96.8,19.7H62.6
		C63.9,7.4,73.2,3.2,80,3.2C88.6,3.2,96.4,9.5,96.8,19.7z M152.9,60.6c14,0,27.6-8.7,30.5-24h-14.2c-2,8.8-8.9,12-16.1,12
		c-8.5,0-16.8-6.7-16.8-22.3c0-15.5,8.1-22.2,17.2-22.2c7.9,0,13.9,4.9,15.3,11.8h14.2c-2.6-14.5-15-23.9-29.4-23.9
		c-19.7,0-32.2,14.9-32.2,34.4S133.8,60.6,152.9,60.6z M224.2,60.6c16,0,32.3-10.5,32.3-34.3c0-23.7-16.4-34.4-32.3-34.4
		s-32.3,10.7-32.3,34.4C191.9,50.1,208.3,60.6,224.2,60.6z M224.2,48.7c-9.3,0-17.3-7.2-17.3-22.5c0-15.1,8.1-22.6,17.3-22.6
		s17.3,7.4,17.3,22.6C241.6,41.5,233.5,48.7,224.2,48.7z M284.1-14.8v-14.6h-14.5v14.6H284.1z M284.1,59V-6.7h-14.5V59H284.1z
		 M314.9,59V24.1c0-11.8,4-20.4,15.3-20.4c11.2,0,12.4,8.8,12.4,17.6V59h14.5V17.8c0-15.6-6.5-25.9-22.3-25.9
		c-9.3,0-16.1,3.8-19.9,10.6v-9.2h-14.5V59L314.9,59z"/>
</g>
<g>
	<path d="M619.9,93.6c16.8,0,29.1,6.4,29.1,26.6c0,20.3-12.2,26.7-29.1,26.7h-14.6V93.6H619.9z M619.7,99.9h-6.8v40.7h6.8
		c11,0,21.6-2.2,21.6-20.4C641.3,102.1,630.6,99.9,619.7,99.9z"/>
	<path d="M693.4,127.3c0,14.3-9.8,20.6-19,20.6s-19-6.3-19-20.6c0-14.3,9.8-20.6,19-20.6S693.4,112.9,693.4,127.3z M674.4,142
		c6.1,0,11.8-4.6,11.8-14.7c0-10.6-5.7-14.7-11.8-14.7s-11.8,3.9-11.8,14.7C662.5,137.9,668.3,142,674.4,142z"/>
	<path d="M734.9,120.6h-6.8c-1-4.7-5-8-10.2-8c-5.9,0-11.4,4.6-11.4,14.6c0,10,5.5,14.9,11.4,14.9c5.7,0,9.6-3.8,10.5-7.9h6.9
		c-1.4,7.4-8.4,13.8-17.7,13.8c-11.4,0-18.5-8.6-18.5-20.7c0-11.8,7.4-20.5,19.1-20.5C728,106.7,734,113.8,734.9,120.6z"/>
	<path d="M765.9,118.9c-1.1-4.7-4.6-6.5-9.3-6.5c-3.9,0-8.3,1.5-8.3,5c0,3.2,2.2,4.6,6,5.4l5.6,1.1c7.2,1.3,13.5,4.2,13.5,11.8
		c0,7.9-7.1,12.3-16.1,12.3c-10.3,0-16.2-6.8-17-13.8h7.1c1.1,5.1,4.2,8.1,10.1,8.1c5.1,0,9.2-2.1,9.2-5.9c0-4.1-3.8-5.6-8-6.5
		l-5.9-1.2c-5.4-1.2-11.3-3.5-11.3-11c0-7,7.1-11,15.8-11s14.3,4.7,15.6,12.3H765.9z"/>
</g>
</svg>
